icons/disqus-fill.svg

<svg width="24" height="24" fill="none" xmlns="http://www.w3.org/2000/svg"><g clip-path="url(#a)"><path d="M12 2c5.523 0 10 4.477 10 10s-4.477 10-10 10c-2.53 0-4.84-.94-6.601-2.488L1.5 20l1.424-3.797A9.945 9.945 0 0 1 2 12C2 6.477 6.477 2 12 2ZM8 7v10h3.733l.263-.004c3.375-.103 5.337-2.211 5.337-5.025v-.027l-.003-.215C17.23 8.956 15.21 7 11.79 7H8Zm3.831 2.458c1.628 0 2.709.928 2.709 2.529v.028l-.005.183c-.079 1.5-1.138 2.345-2.704 2.345h-1.108V9.458h1.108Z" /></g><defs><clipPath id="a"><path fill="#fff" d="M0 0h24v24H0z"/></clipPath></defs></svg>

<svg xmlns="http://www.w3.org/2000/svg" width="24" height="24" fill="none"><g clip-path="url(#a)"><g><path fill="#121212" d="M12 2C17.523 2 22 6.477 22 12C22 17.523 17.523 22 12 22C9.47 22 7.16 21.06 5.399 19.512L1.5 20L2.924 16.203C2.33 14.925 2 13.501 2 12C2 6.477 6.477 2 12 2ZM8 7V17H11.733L11.996 16.996C15.371 16.893 17.333 14.785 17.333 11.971V11.944L17.33 11.729C17.23 8.956 15.21 7 11.79 7H8ZM11.831 9.458C13.459 9.458 14.54 10.386 14.54 11.987V12.015L14.535 12.198C14.456 13.698 13.397 14.543 11.831 14.543H10.723V9.458H11.831Z"/></g></g><defs><clipPath id="a"><rect width="24" height="24" fill="white"/></clipPath></defs></svg>
